images/init2.svg

<svg width="40" height="40" viewBox="0 0 40 40" fill="none" xmlns="http://www.w3.org/2000/svg">
<circle cx="20" cy="20" r="20" fill="#F0F5FF"/>
<path d="M28.1103 13.3947L20.6403 10.0747C20.5336 10.0255 20.4175 10 20.3 10C20.1825 10 20.0664 10.0255 19.9597 10.0747L12.4897 13.3947C12.3433 13.459 12.2189 13.5648 12.1318 13.699C12.0448 13.8333 11.999 13.99 12 14.15V19.047C12.0026 21.4552 12.7023 23.8111 14.0146 25.8304C15.3269 27.8496 17.1957 29.4458 19.3953 30.4262L19.9597 30.6752C20.0664 30.7245 20.1825 30.75 20.3 30.75C20.4175 30.75 20.5336 30.7245 20.6403 30.6752L21.2047 30.4262C23.4043 29.4458 25.2731 27.8496 26.5854 25.8304C27.8977 23.8111 28.5974 21.4552 28.6 19.047V14.15C28.601 13.99 28.5552 13.8333 28.4682 13.699C28.3811 13.5648 28.2567 13.459 28.1103 13.3947ZM21.96 19.13C22.6204 19.13 23.2537 19.3923 23.7207 19.8593C24.1876 20.3262 24.45 20.9596 24.45 21.62C24.45 22.2803 24.1876 22.9137 23.7207 23.3806C23.2537 23.8476 22.6204 24.1099 21.96 24.1099H21.13V24.9399C21.13 25.1601 21.0425 25.3712 20.8869 25.5268C20.7312 25.6825 20.5201 25.7699 20.3 25.7699C20.0799 25.7699 19.8687 25.6825 19.7131 25.5268C19.5574 25.3712 19.47 25.1601 19.47 24.9399V24.1099H16.98C16.7599 24.1099 16.5488 24.0225 16.3931 23.8668C16.2375 23.7112 16.15 23.5001 16.15 23.2799C16.15 23.0598 16.2375 22.8487 16.3931 22.6931C16.5488 22.5374 16.7599 22.45 16.98 22.45H19.47V20.79H18.64C17.9796 20.79 17.3463 20.5276 16.8793 20.0607C16.4123 19.5937 16.15 18.9604 16.15 18.3C16.15 17.6396 16.4123 17.0062 16.8793 16.5393C17.3463 16.0723 17.9796 15.81 18.64 15.81H19.47V14.98C19.47 14.7598 19.5574 14.5487 19.7131 14.3931C19.8687 14.2374 20.0799 14.15 20.3 14.15C20.5201 14.15 20.7312 14.2374 20.8869 14.3931C21.0425 14.5487 21.13 14.7598 21.13 14.98V15.81H23.62C23.8401 15.81 24.0512 15.8974 24.2069 16.0531C24.3625 16.2087 24.45 16.4198 24.45 16.64C24.45 16.8601 24.3625 17.0712 24.2069 17.2269C24.0512 17.3825 23.8401 17.47 23.62 17.47H21.13V19.13H21.96Z" fill="#BDD0EA"/>
<path d="M22.79 21.62C22.7894 21.8399 22.7017 22.0506 22.5462 22.2061C22.3907 22.3616 22.18 22.4493 21.96 22.45H21.13V20.79H21.96C22.18 20.7906 22.3907 20.8783 22.5462 21.0338C22.7017 21.1893 22.7894 21.4 22.79 21.62ZM19.4701 17.47V19.13H18.6401C18.4199 19.13 18.2088 19.0425 18.0532 18.8869C17.8975 18.7312 17.8101 18.5201 17.8101 18.3C17.8101 18.0798 17.8975 17.8687 18.0532 17.7131C18.2088 17.5574 18.4199 17.47 18.6401 17.47H19.4701Z" fill="#BDD0EA"/>
</svg>

<svg width="40" height="40" fill="none" xmlns="http://www.w3.org/2000/svg"><circle cx="20" cy="20" r="20" fill="#F0F5FF"/><path d="M28.11 13.395l-7.47-3.32a.813.813 0 00-.68 0l-7.47 3.32a.82.82 0 00-.49.755v4.897a12.473 12.473 0 007.395 11.38l.565.248a.811.811 0 00.68 0l.565-.249A12.474 12.474 0 0028.6 19.047V14.15a.82.82 0 00-.49-.755zm-6.15 5.735a2.49 2.49 0 110 4.98h-.83v.83a.83.83 0 01-1.66 0v-.83h-2.49a.83.83 0 110-1.66h2.49v-1.66h-.83a2.49 2.49 0 010-4.98h.83v-.83a.83.83 0 111.66 0v.83h2.49a.83.83 0 110 1.66h-2.49v1.66h.83z" fill="#BDD0EA"/><path d="M22.79 21.62a.832.832 0 01-.83.83h-.83v-1.66h.83a.832.832 0 01.83.83zm-3.32-4.15v1.66h-.83a.83.83 0 010-1.66h.83z" fill="#BDD0EA"/></svg>
